X:1
T:James Gibb editions
T:Es ist ein Schnee gefallen - Othmayr
T:#
%%score [ 1 2 3 4 ]
L:1/8
Q:1/4=91
M:4/4
K:Bb
V:1 treble nm="Soprano" snm="S"
V:2 treble nm="Alto" snm="A"
V:3 treble-8 nm="Tenor" snm="T"
V:4 bass nm="Bass" snm="B"
V:1
"^Es ist ein Schnee gefallen""^Caspar Othmayr\n(1515-53)" B2 | B2 B2 B2 B2 | A4 A2 A2 | %3
w: Es|ist ein Schnee ge-|fal- len, wann|
w: Mein|Haus hat kei- nen|Gie- bel, es|
w: Ach,|Lieb, lass dichs er-|bar- men, dass|
 c2 B2 G2 A2 | B6 B2 | A3 B c2 B2 | B4 B2 B2 | A2 G2 G2 F2 | F6 F2 | A3 B c2 B2 | c4 c2 B2 | %11
w: es ist noch nit|Zeit, man|wirft mich mit den|Bal- len, der|Weg ist mir ver-|schneit, man|wirft mich mit den|Bal- len, der|
w: ist mir wor- den|alt, zer-|bro- chen sind die|Rie- gel, mein|Stüb- lein ist mir|kalt, zer-|bro- chen sind die|Rie- gel, mein|
w: ich so e- lend|bin, und|schleuss mich in dein|Ar- me, so|fährt der Win- ter|hin, und|schleuss mich in dein|Ar- me, so|
 A2 G2 G2 F2 | F6 |] %13
w: Weg ist mir ver-|schneit.|
w: Stüb- lein ist mir|kalt.|
w: fährt der Win- ter|hin!|
V:2
 F2 | G2 F2 F2 B,2 | C4 C2 F2 | E2 D2 C4 | B,4 F2 F2 | F3 F E2 D2 | G4 G2 F2 | F2 D2 E2 C2 | %8
w: Es|ist ein Schnee ge-|fal- len, wann|es ist noch|nit Zeit, man|wirft mich mit den|Bal- len, der|Weg ist mir ver-|
w: Mein|Haus hat kei- nen|Gie- bel, es|ist mir wor-|den alt, zer-|bro- chen sind die|Rie- gel, mein|Stüb- lein ist mir|
w: Ach,|Lieb, lass dichs er-|bar- men, dass|ich so e-|lend bin, und|schleuss mich in dein|Ar- me, so|fährt der Win- ter|
 (D2 CB, C2) C2 | F3 F F2 F2 | _A4 A2 F2 | F2 D2 E2 C2 | D6 |] %13
w: schneit, * * * man|wirft mich mit den|Bal- len, der|Weg ist mir ver-|schneit.|
w: kalt, * * * zer-|bro- chen sind die|Rie- gel, mein|Stüb- lein ist mir|kalt.|
w: hin, * * * und|schleuss mich in dein|Ar- me, so|fährt der Win- ter|hin!|
V:3
 B2 | B3 c d2 e2 | f4 f2 f2 | c2 d2 e2 f2 | (d3 c B2) B2 | c3 c c2 d2 | e4 e2 d2 | c2 B2 B2 A2 | %8
w: Es|ist ein Schnee ge-|fal- len, wann|es ist noch nit|Zeit, * * man|wirft mich mit den|Bal- len, der|Weg ist mir ver-|
w: Mein|Haus hat kei- nen|Gie- bel, es|ist mir wor- den|alt, * * zer-|bro- chen sind die|Rie- gel, mein|Stüb- lein ist mir|
w: Ach,|Lieb, lass dichs er-|bar- men, dass|ich so e- lend|bin, * * und|schleuss mich in dein|Ar- me, so|fährt der Win- ter|
 (B2 AG F2) F2 | c3 c c2 d2 | e4 e2 d2 | c2 B2 B2 A2 | B6 |] %13
w: schneit, * * * man|wirft mich mit den|Bal- len, der|Weg ist mir ver-|schneit.|
w: kalt, * * * zer-|bro- chen sind die|Rie- gel, mein|Stüb- lein ist mir|kalt.|
w: hin, * * * und|schleuss mich in dein|Ar- me, so|fährt der Win- ter|hin!|
V:4
 B,2 | G,2 B,2 B,2 G,2 | F,4 F,2 F,2 | A,2 B,2 C2 F,2 | B,6 B,2 | F,3 F, A,2 B,2 | E,4 E,2 B,2 | %7
w: Es|ist ein Schnee ge-|fal- len, wann|es ist noch nit|Zeit, man|wirft mich mit den|Bal- len, der|
w: Mein|Haus hat kei- nen|Gie- bel, es|ist mir wor- den|alt, zer-|bro- chen sind die|Rie- gel, mein|
w: Ach,|Lieb, lass dichs er-|bar- men, dass|ich so e- lend|bin, und|schleuss mich in dein|Ar- me, so|
 F,2 G,2 E,2 F,2 | (B,,4 F,2) F,2 | F,3 F, A,2 B,2 | _A,4 A,2 B,2 | F,2 G,2 E,2 F,2 | B,,6 |] %13
w: Weg ist mir ver-|schneit, * man|wirft mich mit den|Bal- len, der|Weg ist mir ver-|schneit.|
w: Stüb- lein ist mir|kalt, * zer-|bro- chen sind die|Rie- gel, mein|Stüb- lein ist mir|kalt.|
w: fährt der Win- ter|hin, * und|schleuss mich in dein|Ar- me, so|fährt der Win- ter|hin!|

